X:629
T:Marjorie's Request
T:Fennessy's Fancy
C:Jill Lawrence, 1981.  Chords by Colin Hume, 2022.
L:1/8
M:6/8
R:Jig
S:Colin Hume's website,  colinhume.com  - chords can also be printed below the stave.
Q:3/8=112
K:G
P:A
|: d | "G"BBB B2c | "/"d2e d2d | "C"e2f g2e | "G"e2d d2d |\
"G"B2B B2A | "/"B2c d2d | "G"B2B "D7"A2A | "G"G3- G2 :|
P:B
|: B | "G"d3 "D7"d3 | "G"d3- d2B | "Am"cde cde | "G"d2B B2B |\
"Am"AEF "Em"GAB | "Am"AEF "Em"GAB |1 "D"A2d "A7"d2e | "D"d3- d2 :|2 "Am"A2E "D7"F2A | "G"G3- G2 |]

